docs/public/static/sponsors/kombai-dark.svg

<svg width="350" height="75" viewBox="0 0 350 75" fill="none" xmlns="http://www.w3.org/2000/svg">
<path d="M0.875405 54.5L6.67086 19.5909H14.0515L11.5118 34.983H11.972L27.0743 19.5909H35.9209L20.4265 35.2216L30.2788 54.5H21.4493L14.3243 40.1477L9.92654 44.6136L8.25609 54.5H0.875405ZM43.7746 55.0114C41.1041 55.0114 38.8939 54.4432 37.1439 53.3068C35.3939 52.1591 34.1609 50.5682 33.445 48.5341C32.7405 46.4886 32.6098 44.108 33.053 41.392C33.4848 38.7102 34.3825 36.3636 35.7461 34.3523C37.1098 32.3409 38.8427 30.7784 40.945 29.6648C43.0473 28.5398 45.4166 27.9773 48.053 27.9773C50.7121 27.9773 52.9166 28.5511 54.6666 29.6989C56.4166 30.8352 57.6496 32.4261 58.3655 34.4716C59.0814 36.517 59.2177 38.8977 58.7746 41.6136C58.3314 44.2841 57.4223 46.625 56.0473 48.6364C54.6723 50.6477 52.9393 52.2159 50.8484 53.3409C48.7575 54.4545 46.3996 55.0114 43.7746 55.0114ZM44.4905 49.3864C45.7177 49.3864 46.803 49.0398 47.7461 48.3466C48.7007 47.642 49.4905 46.6875 50.1155 45.483C50.7518 44.267 51.195 42.892 51.445 41.358C51.695 39.8466 51.7121 38.5057 51.4961 37.3352C51.2802 36.1534 50.8257 35.2216 50.1325 34.5398C49.4507 33.858 48.5132 33.517 47.32 33.517C46.0927 33.517 45.0018 33.8693 44.0473 34.5739C43.0927 35.267 42.303 36.2216 41.678 37.4375C41.053 38.6534 40.6155 40.0341 40.3655 41.5795C40.1268 43.0795 40.1098 44.4205 40.3143 45.6023C40.5189 46.7727 40.9677 47.6989 41.6609 48.3807C42.3541 49.0511 43.2973 49.3864 44.4905 49.3864ZM61.3996 54.5L65.7632 28.3182H72.6666L71.9166 32.9375H72.2064C73.0018 31.4034 74.1098 30.1932 75.5302 29.3068C76.9621 28.4205 78.57 27.9773 80.3541 27.9773C82.1268 27.9773 83.57 28.4261 84.6836 29.3239C85.8086 30.2102 86.4564 31.4148 86.6268 32.9375H86.8996C87.6723 31.4375 88.8371 30.2386 90.3939 29.3409C91.9507 28.4318 93.6893 27.9773 95.6098 27.9773C98.0302 27.9773 99.8825 28.7557 101.167 30.3125C102.451 31.8693 102.854 34.0625 102.377 36.892L99.445 54.5H92.1836L94.9109 38.3239C95.1268 36.858 94.9109 35.767 94.2632 35.0511C93.6155 34.3239 92.7121 33.9602 91.553 33.9602C90.2348 33.9602 89.1382 34.3807 88.2632 35.2216C87.3882 36.0511 86.8484 37.1477 86.6439 38.5114L83.9336 54.5H76.8939L79.6552 38.1705C79.8484 36.875 79.6382 35.8523 79.0246 35.1023C78.4223 34.3409 77.5189 33.9602 76.3143 33.9602C75.5189 33.9602 74.7632 34.1648 74.0473 34.5739C73.3427 34.9716 72.7461 35.5341 72.2575 36.2614C71.7689 36.9773 71.4507 37.8182 71.303 38.7841L68.6439 54.5H61.3996ZM105.266 54.5L111.061 19.5909H118.323L116.175 32.7159H116.38C116.811 32.0114 117.391 31.2955 118.118 30.5682C118.857 29.8295 119.76 29.2159 120.829 28.7273C121.897 28.2273 123.164 27.9773 124.63 27.9773C126.539 27.9773 128.215 28.4773 129.658 29.4773C131.101 30.4659 132.141 31.9602 132.777 33.9602C133.414 35.9489 133.482 38.4432 132.982 41.4432C132.505 44.3636 131.624 46.8295 130.34 48.8409C129.067 50.8409 127.539 52.358 125.755 53.392C123.982 54.4148 122.101 54.9261 120.113 54.9261C118.704 54.9261 117.544 54.6932 116.635 54.2273C115.738 53.7614 115.039 53.1761 114.539 52.4716C114.039 51.7557 113.681 51.0341 113.465 50.3068H113.107L112.425 54.5H105.266ZM114.556 41.4091C114.306 42.9659 114.3 44.3239 114.539 45.483C114.789 46.642 115.266 47.5455 115.971 48.1932C116.686 48.8295 117.624 49.1477 118.783 49.1477C119.976 49.1477 121.033 48.8239 121.954 48.1761C122.885 47.517 123.658 46.608 124.272 45.4489C124.885 44.2784 125.317 42.9318 125.567 41.4091C125.806 39.8977 125.811 38.5682 125.584 37.4205C125.357 36.2727 124.891 35.375 124.186 34.7273C123.482 34.0795 122.527 33.7557 121.323 33.7557C120.152 33.7557 119.101 34.0682 118.169 34.6932C117.249 35.3182 116.476 36.2045 115.851 37.3523C115.238 38.5 114.806 39.8523 114.556 41.4091ZM143.043 54.9943C141.384 54.9943 139.946 54.7045 138.731 54.125C137.526 53.5341 136.64 52.6591 136.071 51.5C135.503 50.3409 135.361 48.9034 135.645 47.1875C135.895 45.733 136.367 44.517 137.06 43.5398C137.765 42.5511 138.623 41.7557 139.634 41.1534C140.645 40.5511 141.765 40.0909 142.992 39.7727C144.231 39.4545 145.509 39.2386 146.827 39.125C148.35 38.9659 149.588 38.8125 150.543 38.6648C151.509 38.517 152.231 38.3068 152.708 38.0341C153.185 37.75 153.475 37.3295 153.577 36.7727V36.6705C153.748 35.6023 153.549 34.7727 152.981 34.1818C152.424 33.5795 151.532 33.2784 150.304 33.2784C149.009 33.2784 147.907 33.5625 146.998 34.1307C146.1 34.6989 145.458 35.4205 145.071 36.2955L138.458 35.75C139.049 34.1591 139.941 32.7841 141.134 31.625C142.338 30.4545 143.787 29.5568 145.481 28.9318C147.174 28.2955 149.071 27.9773 151.174 27.9773C152.628 27.9773 153.986 28.1477 155.248 28.4886C156.52 28.8295 157.617 29.358 158.537 30.0739C159.469 30.7898 160.14 31.7102 160.549 32.8352C160.969 33.9489 161.054 35.2841 160.804 36.8409L157.856 54.5H150.969L151.583 50.8693H151.378C150.821 51.6875 150.14 52.4091 149.333 53.0341C148.526 53.6477 147.6 54.1307 146.554 54.483C145.509 54.8239 144.338 54.9943 143.043 54.9943ZM145.958 49.983C147.015 49.983 147.986 49.7727 148.873 49.3523C149.77 48.9205 150.509 48.3409 151.088 47.6136C151.679 46.8864 152.054 46.0625 152.213 45.142L152.657 42.3636C152.429 42.5114 152.1 42.642 151.668 42.7557C151.248 42.8693 150.787 42.9773 150.287 43.0795C149.799 43.1705 149.304 43.2557 148.804 43.3352C148.304 43.4034 147.856 43.4716 147.458 43.5398C146.583 43.6648 145.799 43.8636 145.106 44.1364C144.412 44.4091 143.85 44.7784 143.418 45.2443C142.986 45.6989 142.719 46.267 142.617 46.9489C142.458 47.9375 142.691 48.6932 143.316 49.2159C143.952 49.7273 144.833 49.983 145.958 49.983ZM163.489 54.5L167.853 28.3182H175.114L170.75 54.5H163.489ZM172.233 24.9091C171.154 24.9091 170.262 24.5511 169.557 23.8352C168.864 23.108 168.58 22.2443 168.705 21.2443C168.83 20.2216 169.319 19.358 170.171 18.6534C171.023 17.9375 171.989 17.5795 173.069 17.5795C174.148 17.5795 175.029 17.9375 175.711 18.6534C176.392 19.358 176.677 20.2216 176.563 21.2443C176.449 22.2443 175.966 23.108 175.114 23.8352C174.273 24.5511 173.313 24.9091 172.233 24.9091Z" fill="white"/>
<rect x="184.023" y="6" width="165.954" height="63" rx="7.4306" fill="#F50057"/>
<path d="M208.807 31.5455L208.205 35.1818H197.432L198.034 31.5455H208.807ZM197.58 49L200.705 30.2841C200.909 29.0189 201.326 27.9697 201.955 27.1364C202.591 26.303 203.375 25.678 204.307 25.2614C205.247 24.8447 206.262 24.6364 207.353 24.6364C208.095 24.6364 208.766 24.6932 209.364 24.8068C209.97 24.9205 210.409 25.0227 210.682 25.1136L209.239 28.75C209.057 28.6894 208.834 28.6326 208.569 28.5795C208.303 28.5265 208.023 28.5 207.728 28.5C207.023 28.5 206.504 28.6667 206.171 29C205.845 29.3258 205.625 29.7841 205.512 30.375L202.409 49H197.58ZM216.128 49.3409C214.348 49.3409 212.874 48.9621 211.708 48.2045C210.541 47.4394 209.719 46.3788 209.242 45.0227C208.772 43.6591 208.685 42.072 208.981 40.2614C209.268 38.4735 209.867 36.9091 210.776 35.5682C211.685 34.2273 212.84 33.1856 214.242 32.4432C215.643 31.6932 217.223 31.3182 218.981 31.3182C220.753 31.3182 222.223 31.7008 223.39 32.4659C224.556 33.2235 225.378 34.2841 225.856 35.6477C226.333 37.0114 226.424 38.5985 226.128 40.4091C225.833 42.1894 225.227 43.75 224.31 45.0909C223.393 46.4318 222.238 47.4773 220.844 48.2273C219.45 48.9697 217.878 49.3409 216.128 49.3409ZM216.606 45.5909C217.424 45.5909 218.147 45.3598 218.776 44.8977C219.412 44.428 219.939 43.7917 220.356 42.9886C220.78 42.178 221.075 41.2614 221.242 40.2386C221.409 39.2311 221.42 38.3371 221.276 37.5568C221.132 36.7689 220.829 36.1477 220.367 35.6932C219.912 35.2386 219.287 35.0114 218.492 35.0114C217.674 35.0114 216.946 35.2462 216.31 35.7159C215.674 36.178 215.147 36.8144 214.731 37.625C214.314 38.4356 214.022 39.3561 213.856 40.3864C213.696 41.3864 213.685 42.2803 213.821 43.0682C213.958 43.8485 214.257 44.4659 214.719 44.9205C215.181 45.3674 215.81 45.5909 216.606 45.5909ZM227.844 49L230.753 31.5455H235.446L234.935 34.5909H235.117C235.617 33.5076 236.287 32.6894 237.128 32.1364C237.977 31.5758 238.89 31.2955 239.867 31.2955C240.109 31.2955 240.363 31.3106 240.628 31.3409C240.901 31.3636 241.143 31.4015 241.356 31.4545L240.628 35.7614C240.416 35.6856 240.113 35.625 239.719 35.5795C239.333 35.5265 238.965 35.5 238.617 35.5C237.912 35.5 237.257 35.6553 236.651 35.9659C236.045 36.2689 235.534 36.6932 235.117 37.2386C234.708 37.7841 234.439 38.4129 234.31 39.125L232.685 49H227.844ZM252.299 25.7273H258.367L262.196 41.3636H262.469L271.458 25.7273H277.526L273.662 49H268.89L271.412 33.8523H271.208L262.708 48.8864H259.446L255.946 33.7955H255.753L253.208 49H248.435L252.299 25.7273ZM295.955 25.7273H300.875L298.375 40.8409C298.095 42.5379 297.447 44.0227 296.432 45.2955C295.417 46.5682 294.125 47.5606 292.557 48.2727C290.989 48.9773 289.239 49.3295 287.307 49.3295C285.375 49.3295 283.747 48.9773 282.421 48.2727C281.095 47.5606 280.137 46.5682 279.546 45.2955C278.955 44.0227 278.8 42.5379 279.08 40.8409L281.58 25.7273H286.5L284.057 40.4205C283.921 41.3068 283.989 42.0947 284.262 42.7841C284.542 43.4735 285.004 44.0152 285.648 44.4091C286.292 44.803 287.088 45 288.034 45C288.989 45 289.853 44.803 290.625 44.4091C291.406 44.0152 292.046 43.4735 292.546 42.7841C293.053 42.0947 293.375 41.3068 293.512 40.4205L295.955 25.7273ZM309.844 25.7273L305.981 49H301.06L304.924 25.7273H309.844Z" fill="white"/>
<path d="M327.565 46.3153L326.031 44.7983L331.358 39.4716H317.977V37.2557H331.358L326.031 31.9375L327.565 30.4119L335.517 38.3636L327.565 46.3153Z" fill="white"/>
</svg>

<svg xmlns="http://www.w3.org/2000/svg" width="350" height="75" fill="none"><path fill="#fff" d="m.875 54.5 5.796-34.91h7.38l-2.54 15.393h.461l15.102-15.392h8.847L20.427 35.22 30.279 54.5h-8.83l-7.125-14.352-4.397 4.466-1.67 9.886H.874Zm42.9.511c-2.67 0-4.881-.568-6.631-1.704-1.75-1.148-2.983-2.739-3.699-4.773-.705-2.045-.835-4.426-.392-7.142.432-2.682 1.33-5.028 2.693-7.04 1.364-2.011 3.097-3.574 5.199-4.687 2.102-1.125 4.472-1.688 7.108-1.688 2.66 0 4.864.574 6.614 1.722 1.75 1.136 2.983 2.727 3.698 4.773.716 2.045.853 4.426.41 7.142-.444 2.67-1.353 5.011-2.728 7.022-1.375 2.012-3.108 3.58-5.199 4.705-2.09 1.114-4.448 1.67-7.073 1.67Zm.715-5.625c1.228 0 2.313-.346 3.256-1.04.955-.704 1.744-1.658 2.37-2.863.636-1.216 1.079-2.591 1.329-4.125.25-1.511.267-2.852.051-4.023-.216-1.182-.67-2.113-1.364-2.795-.681-.682-1.619-1.023-2.812-1.023-1.227 0-2.318.352-3.273 1.057-.954.693-1.744 1.648-2.369 2.864-.625 1.215-1.063 2.596-1.313 4.142-.238 1.5-.255 2.84-.05 4.022.204 1.17.653 2.097 1.346 2.779.693.67 1.636 1.005 2.83 1.005ZM61.4 54.5l4.363-26.182h6.904l-.75 4.62h.29c.795-1.535 1.903-2.745 3.323-3.631 1.432-.886 3.04-1.33 4.824-1.33 1.773 0 3.216.45 4.33 1.347 1.125.886 1.772 2.09 1.943 3.613h.273c.772-1.5 1.937-2.698 3.494-3.596 1.557-.91 3.295-1.364 5.216-1.364 2.42 0 4.272.779 5.557 2.335 1.284 1.557 1.687 3.75 1.21 6.58L99.445 54.5h-7.261l2.727-16.176c.216-1.466 0-2.557-.648-3.273-.648-.727-1.55-1.09-2.71-1.09-1.318 0-2.415.42-3.29 1.26-.875.83-1.415 1.927-1.62 3.29L83.934 54.5h-7.04l2.762-16.33c.193-1.295-.017-2.318-.63-3.068-.603-.761-1.506-1.142-2.71-1.142-.796 0-1.552.205-2.268.614-.704.398-1.3.96-1.79 1.687-.488.716-.806 1.557-.954 2.523L68.643 54.5H61.4Zm43.866 0 5.795-34.91h7.262l-2.148 13.126h.205c.431-.705 1.011-1.42 1.738-2.148.739-.739 1.642-1.352 2.711-1.84 1.068-.5 2.335-.75 3.801-.75 1.909 0 3.585.5 5.028 1.5 1.443.988 2.483 2.482 3.119 4.482.637 1.989.705 4.483.205 7.483-.477 2.92-1.358 5.387-2.642 7.398-1.273 2-2.801 3.517-4.585 4.551-1.773 1.023-3.654 1.534-5.642 1.534-1.409 0-2.569-.233-3.478-.699-.897-.466-1.596-1.05-2.096-1.755-.5-.716-.858-1.438-1.074-2.165h-.358l-.682 4.193h-7.159Zm9.29-13.09c-.25 1.556-.256 2.914-.017 4.073.25 1.159.727 2.063 1.432 2.71.715.637 1.653.955 2.812.955 1.193 0 2.25-.324 3.171-.972.931-.659 1.704-1.568 2.318-2.727.613-1.17 1.045-2.517 1.295-4.04.239-1.511.244-2.84.017-3.989-.227-1.147-.693-2.045-1.398-2.693-.704-.647-1.659-.971-2.863-.971-1.171 0-2.222.312-3.154.937-.92.625-1.693 1.512-2.318 2.66-.613 1.147-1.045 2.5-1.295 4.056Zm28.487 13.584c-1.659 0-3.097-.29-4.312-.869-1.205-.59-2.091-1.466-2.66-2.625-.568-1.16-.71-2.597-.426-4.313.25-1.454.722-2.67 1.415-3.647a8.449 8.449 0 0 1 2.574-2.387 12.8 12.8 0 0 1 3.358-1.38 23.502 23.502 0 0 1 3.835-.648 78.882 78.882 0 0 0 3.716-.46c.966-.148 1.688-.358 2.165-.63.477-.285.767-.705.869-1.262v-.103c.171-1.068-.028-1.897-.596-2.488-.557-.602-1.449-.904-2.677-.904-1.295 0-2.397.285-3.306.853-.898.568-1.54 1.29-1.927 2.164l-6.613-.545a11.028 11.028 0 0 1 2.676-4.125c1.204-1.17 2.653-2.068 4.347-2.693 1.693-.636 3.59-.955 5.693-.955 1.454 0 2.812.17 4.074.512 1.272.34 2.369.869 3.289 1.585a5.988 5.988 0 0 1 2.012 2.761c.42 1.114.505 2.45.255 4.006L157.856 54.5h-6.887l.614-3.63h-.205a9.46 9.46 0 0 1-2.045 2.164 9.628 9.628 0 0 1-2.779 1.449c-1.045.34-2.216.511-3.511.511Zm2.915-5.011c1.057 0 2.028-.21 2.915-.63.897-.433 1.636-1.012 2.215-1.74a5.283 5.283 0 0 0 1.125-2.471l.444-2.778c-.228.147-.557.278-.989.392-.42.113-.881.221-1.381.324-.488.09-.983.176-1.483.255-.5.068-.948.137-1.346.205-.875.125-1.659.324-2.352.596-.694.273-1.256.642-1.688 1.108-.432.455-.699 1.023-.801 1.705-.159.989.074 1.744.699 2.267.636.511 1.517.767 2.642.767Zm17.531 4.517 4.364-26.182h7.261L170.75 54.5h-7.261Zm8.744-29.59c-1.079 0-1.971-.359-2.676-1.075-.693-.727-.977-1.59-.852-2.59.125-1.023.614-1.887 1.466-2.592.852-.715 1.818-1.073 2.898-1.073 1.079 0 1.96.358 2.642 1.073.681.705.966 1.569.852 2.591-.114 1-.597 1.864-1.449 2.591-.841.716-1.801 1.074-2.881 1.074Z"/><rect width="165.954" height="63" x="184.023" y="6" fill="#F50057" rx="7.431"/><path fill="#fff" d="m208.807 31.546-.602 3.636h-10.773l.602-3.637h10.773ZM197.58 49l3.125-18.716c.204-1.265.621-2.314 1.25-3.148a6.004 6.004 0 0 1 2.352-1.875 7.43 7.43 0 0 1 3.046-.625c.742 0 1.413.057 2.011.17.606.114 1.045.217 1.318.308l-1.443 3.636a5.707 5.707 0 0 0-.67-.17 4.295 4.295 0 0 0-.841-.08c-.705 0-1.224.167-1.557.5-.326.326-.546.784-.659 1.375L202.409 49h-4.829Zm18.548.34c-1.78 0-3.254-.378-4.42-1.136-1.167-.765-1.989-1.825-2.466-3.181-.47-1.364-.557-2.951-.261-4.762.287-1.788.886-3.352 1.795-4.693a9.517 9.517 0 0 1 3.466-3.125c1.401-.75 2.981-1.125 4.739-1.125 1.772 0 3.242.383 4.409 1.148 1.166.758 1.988 1.818 2.466 3.182.477 1.363.568 2.95.272 4.761-.295 1.78-.901 3.341-1.818 4.682a9.748 9.748 0 0 1-3.466 3.136c-1.394.743-2.966 1.114-4.716 1.114Zm.478-3.75c.818 0 1.541-.23 2.17-.692.636-.47 1.163-1.106 1.58-1.91.424-.81.719-1.727.886-2.75.167-1.007.178-1.9.034-2.681-.144-.788-.447-1.41-.909-1.864-.455-.454-1.08-.682-1.875-.682-.818 0-1.546.235-2.182.705-.636.462-1.163 1.098-1.579 1.909-.417.81-.709 1.731-.875 2.761-.16 1-.171 1.894-.035 2.682.137.78.436 1.398.898 1.852.462.447 1.091.67 1.887.67ZM227.844 49l2.909-17.454h4.693l-.511 3.045h.182c.5-1.083 1.17-1.902 2.011-2.455.849-.56 1.762-.84 2.739-.84.242 0 .496.015.761.045.273.023.515.06.728.113l-.728 4.307c-.212-.075-.515-.136-.909-.181a8.12 8.12 0 0 0-1.102-.08c-.705 0-1.36.155-1.966.466a4.368 4.368 0 0 0-1.534 1.273 4.404 4.404 0 0 0-.807 1.886L232.685 49h-4.841Zm24.455-23.273h6.068l3.829 15.637h.273l8.989-15.637h6.068L273.662 49h-4.772l2.522-15.148h-.204l-8.5 15.034h-3.262l-3.5-15.09h-.193L253.208 49h-4.773l3.864-23.273Zm43.656 0h4.92l-2.5 15.114c-.28 1.697-.928 3.182-1.943 4.454-1.015 1.273-2.307 2.266-3.875 2.978-1.568.704-3.318 1.056-5.25 1.056s-3.56-.352-4.886-1.056c-1.326-.712-2.284-1.705-2.875-2.978-.591-1.272-.746-2.757-.466-4.454l2.5-15.114h4.92l-2.443 14.693c-.136.887-.068 1.675.205 2.364.28.69.742 1.231 1.386 1.625.644.394 1.44.591 2.386.591.955 0 1.819-.197 2.591-.59a5.26 5.26 0 0 0 1.921-1.626 5.29 5.29 0 0 0 .966-2.364l2.443-14.693Zm13.889 0L305.981 49h-4.921l3.864-23.273h4.92ZM327.565 46.315l-1.534-1.517 5.327-5.326h-13.381v-2.216h13.381l-5.327-5.319 1.534-1.525 7.952 7.952-7.952 7.951Z"/></svg>
